!!!!SEGMENT: pl-kk--kk-i-389--004-002_anonim--missa-no-4-kyrie.krn
!!!cenid: 17xx:2477
!!!COM: Anonim
!!!COM-rismID: pe30004985
!!!CDT:
!!!CNT:
!!!OPR: [Missa] No. 4.
!!!OTL: Kyrie
!!!OMV: 002
!!!PDT:
!!!AGN: Sacred; Mass
!!!YEC: Copyright 2022 Narodowy Instytut Fryderyka Chopina (https://polishscores.org)
!!!YEM: License CC-BY-4.0 (https://creativecommons.org/licenses/by/4.0)
!!!SMS-siglum: PL-Kk
!!!SMS-shelfmark: Kk.I.389
!!!SMS-variant:
!!!SMS-altvar:
!!!SMS-shelfwork: 004-002 M
!!!NIFC-rismSourceID: 1001146182
!!!NIFC-rismChildID: 1001146623
!!!NIFC-islandoraID: pl-kk:6976
!!!URL-pdf-islandora: https://repozytorium.nifc.pl/islandora/object/pl-kk%3A6976/datastream/PDF/view
!!!URL-scan: https://polish.musicsources.pl/pl/lokalizacje/galeria/rekopisy/5999/1 @EN{Scan on Polish Music Sources Website} @PL{Skany w portalu Dziedzictwo Muzyki Polskiej w otwartym dostępie}
!!!IIIF:
!!!ONB-nifc: UWAGA: S – skan 8-9, A – 27-28 , T –46-47 , B – 65-66 . Części Mszy: Rorate, Kyrie, Gloria, Graduale, Sanctus, Benedictus, Agnus, Dona
!!!AIN: 1 alto 1 bass 1 soprn 1 tenor
!!!key: F
**kern	**text	**kern	**text	**kern	**text	**kern	**text
*part4	*part4	*part3	*part3	*part2	*part2	*part1	*part1
*staff4	*staff4	*staff3	*staff3	*staff2	*staff2	*staff1	*staff1
*I"Basso.	*	*I"Tenore.	*	*I"Alto.	*	*I"Soprano.	*
*I'[B]	*	*I'[T]	*	*I'[A]	*	*I'[S]	*
*ICvox	*	*ICvox	*	*ICvox	*	*ICvox	*
*Ibass	*	*Itenor	*	*Ialto	*	*Isoprn	*
*clefF4	*	*clefC4	*	*clefC3	*	*clefC1	*
*k[b-]	*	*k[b-]	*	*k[b-]	*	*k[b-]	*
*F:	*	*F:	*	*F:	*	*F:	*
*M2/2	*	*M2/2	*	*M2/2	*	*M2/2	*
*met(C.|)	*	*met(C.|)	*	*met(C.|)	*	*met(C.|)	*
=1	=1	=1	=1	=1	=1	=1	=1
!!LO:TX:t=P:problem:all\right	!	!	!	!	!	!	!	!	!	!	!	!	!	!
*	*	*	*	*2\right	*	*2\right	*
4F\	Ky-	4A\	Ky-	2.c\	Ky-	2.a\	Ky-
4G\	.	4B-\	.	.	.	.	.
4A\	.	4c\	.	.	.	.	.
4F\	-ri-	4A\	-ri-	4c\	-ri-	4a\	-ri-
=2	=2	=2	=2	=2	=2	=2	=2
*	*	*2\right	*	*	*	*	*
4B-\	-e	2c\	-e	2.d\	-e	2.b-\	-e
4A\	.	.	.	.	.	.	.
4G\	.	2c\	e-	.	.	.	.
4F\	e-	.	.	4d\	e-	4b-\	e-
=3	=3	=3	=3	=3	=3	=3	=3
4E\	-le-	1c	-lei-	1e	-lei-	1g	-lei-
4D\	.	.	.	.	.	.	.
4E\	.	.	.	.	.	.	.
4C/	-i-	.	.	.	.	.	.
=4	=4	=4	=4	=4	=4	=4	=4
*2\right	*	*	*	*	*	*	*
2F\	-son,	2c\	-son,	1f	-son,	1a	-son,
2r	.	2r	.	.	.	.	.
=5	=5	=5	=5	=5	=5	=5	=5
4F\	Ky-	2.c\	Ky-	2.a\	Ky-	2.ff\	Ky-
4E\	.	.	.	.	.	.	.
4F\	.	.	.	.	.	.	.
4D\	-ri-	4Bn\	-ri-	4a\	-ri-	4ee\	-ri-
=6	=6	=6	=6	=6	=6	=6	=6
4E\	-e	2c\	-e	2.g\	-e	2.ee\	-e
4D\	.	.	.	.	.	.	.
4E\	.	2c\	e-	.	.	.	.
4C/	e-	.	.	4g\	e-	4ee\	e-
!LO:LB:g=original	!	!	!	!	!	!	!
=7	=7	=7	=7	=7	=7	=7	=7
4F\	-le-	1B-	-lei-	1f	-lei-	1dd	-lei-
4D\	.	.	.	.	.	.	.
2G\	-i-	.	.	.	.	.	.
=8	=8	=8	=8	=8	=8	=8	=8
2C/	-son,	2G/	-son,	2e\	-son,	2cc\	-son,
2r	.	2r	.	2r	.	2r	.
!	!	!	!	!LO:LB:g=original	!	!LO:LB:g=original	!
=9	=9	=9	=9	=9	=9	=9	=9
2C/	Chri-	[2c\	Chri-	2g\	Chri-	2ee\	Chri-
2c\	.	2c\]	.	2g\	-ste	2ee\	-ste
!	!	!LO:LB:g=original	!	!	!	!	!
=10	=10	=10	=10	=10	=10	=10	=10
2c\	-ste	2c\	-ste,	8g\L	Chri-	8ee\L	Chri-
.	.	.	.	8f\	.	8dd\	.
.	.	.	.	8e\	.	8cc\	.
.	.	.	.	8f\J	.	8dd\J	.
2r	.	2r	.	2g\	-ste,	2ee\	-ste,
=11	=11	=11	=11	=11	=11	=11	=11
2C/	Chri-	1c	Chri-	2g\	Chri-	2ee\	Chri-
2B-X\	.	.	.	2g\	-ste	2ee\	-ste
=12	=12	=12	=12	=12	=12	=12	=12
2B-\	-ste,	2c\	-ste,	8g\L	Chri-	8ee\L	Chri-
.	.	.	.	8f\	.	8dd\	.
.	.	.	.	8e\	.	8cc\	.
.	.	.	.	8f\J	.	8dd\J	.
2r	.	2r	.	2g\	-ste,	2ee\	-ste,
=13	=13	=13	=13	=13	=13	=13	=13
4A\	Chri-	4A\	Chri-	4f\	Chri-	4cc\	Chri-
4G\	.	4B-\	.	4g\	-ste	4b-\	.
4F\	-ste	4c\	-ste	4a\	.	4a\	.
4E\	e-	4c\	e-	4b-\	e-	4g\	.
=14	=14	=14	=14	=14	=14	=14	=14
4F\	-le-	4f\	-le-	4a\	-le-	4cc\	-ste
4G\	-i-	4c\	-i-	4g\	-i-	4b-\	.
4A\	-son,	4c\	-son	4f\	-son	4a\	.
4F\	e-	4A\	e-	4a\	e-	4cc\	e-
=15	=15	=15	=15	=15	=15	=15	=15
4B-\	-le-	2B-\	-le-	4g\	-le-	4dd\	-le-
4G\	.	.	.	4b-\	.	4gg\	.
!	!	!	!	!	!	!LO:LB:g=original	!
4c\	.	2c\	-i-	4a\	.	4ff\	.
4C/	-i-	.	.	4g\	-i-	4ee\	-i-
=16	=16	=16	=16	=16	=16	=16	=16
2F\	-son	2c\	-son,	2a\	-son	2ff\	-son,
2r	.	2r	.	2r	.	2r	.
!LO:LB:g=original	!	!	!	!LO:LB:g=original	!	!	!
=17	=17	=17	=17	=17	=17	=17	=17
2C/	Ky-	2c\	Ky-	2g\	Ky-	2ee\	Ky-
2c\	-ri-	2c\	-ri-	2g\	-ri-	2ee\	-ri-
=18	=18	=18	=18	=18	=18	=18	=18
2c\	-e	2c\	-e	8g\L	-e	8ee\L	-e
.	.	.	.	8f\	.	8dd\	.
.	.	.	.	8e\	.	8cc\	.
.	.	.	.	8f\J	.	8dd\J	.
2r	.	2r	.	2g\	.	2ee\	.
=19	=19	=19	=19	=19	=19	=19	=19
2C/	Ky-	2c\	Ky-	2g\	Ky-	2ee\	Ky-
2B-X\	-ri-	2c\	-ri-	2g\	-ri-	2ee\	-ri-
=20	=20	=20	=20	=20	=20	=20	=20
2B-\	-e	2c\	-e	8g\L	-e	8ee\L	-e
.	.	.	.	8f\	.	8dd\	.
.	.	.	.	8e\	.	8cc\	.
.	.	.	.	8f\J	.	8dd\J	.
2r	.	2r	.	2g\	.	2ee\	.
!	!	!LO:LB:g=original	!	!	!	!	!
=21	=21	=21	=21	=21	=21	=21	=21
4A\	Ky-	4A\	Ky-	4f\	Ky-	4cc\	Ky-
4G\	-ri-	4B-\	-ri-	4g\	.	4b-\	-ri-
4F\	-e	4c\	-e	4a\	.	4a\	-e
4E\	e-	4c\	e-	4b-\	-ri-	4g\	e-
!	!	!	!	!	!	!LO:LB:g=original	!
=22	=22	=22	=22	=22	=22	=22	=22
4F\	-le-	4f\	-le-	4a\	-e	4cc\	-le-
4G\	-i-	4c\	-i-	4g\	.	4b-\	-i-
4A\	-son	4c\	-son	4f\	.	4a\	-son,
4F\	e-	4A\	e-	4a\	e-	4cc\	e-
=23	=23	=23	=23	=23	=23	=23	=23
2B-\	-le-	2B-\	-le-	4g\	-le-	2dd\	-le-
.	.	.	.	4b-\	.	.	.
4c\	.	2c\	-i-	4a\	.	2ee\	-i-
4C/	-i-	.	.	4g\	-i-	.	.
=24	=24	=24	=24	=24	=24	=24	=24
2F\	-son	2B-\	-son	2a\	-son,	2ff\	-son
2A\	e-	2A\	e-	2f\	e-	2cc\	e-
!	!	!	!	!LO:LB:g=original	!	!	!
=25	=25	=25	=25	=25	=25	=25	=25
4B-\	-le-	1F	-le-	1f	-lei-	4dd\	-le-
4A\	.	.	.	.	.	4cc\	.
4G\	.	.	.	.	.	4b-\	.
4F\	-i-	.	.	.	.	4a\	-i-
=26	=26	=26	=26	=26	=26	=26	=26
2E\	-son	2G/	.	4g\	-son	2b-\	-son
.	.	.	.	4e\	.	.	.
2F\	e-	2A/	.	4a\	e-	2cc\	e-
.	.	.	.	4f\	.	.	.
=27	=27	=27	=27	=27	=27	=27	=27
2BB-/	-le-	2d\	.	2g\	-le-	2b-\	-le-
2C/	-i-	2c\	-i-	2e\	-i-	2g\	-i-
=28	=28	=28	=28	=28	=28	=28	=28
1FF	-son.	1c	-son.	1f	-son.	2.a\	-son.
.	.	.	.	.	.	4r	.
==	==	==	==	==	==	==	==
*-	*-	*-	*-	*-	*-	*-	*-
!!!system-decoration: [(s1,s2,s3,s4)]
!!!ENC: Andrzej Gręziak
!!!END: 2023-11-06
!!!EED: Jan Barakat
!!!EEV: 2023-11-29
